src/assets/icons/three-drops.svg

<?xml version="1.0" encoding="UTF-8"?>
<svg width="104px" height="70px" viewBox="0 0 104 70" version="1.1" xmlns="http://www.w3.org/2000/svg" xmlns:xlink="http://www.w3.org/1999/xlink">
    <!-- Generator: Sketch 57.1 (83088) - https://sketch.com -->
    <title>Icon/Big/ThreeDrops</title>
    <desc>Created with Sketch.</desc>
    <g id="assets" stroke="none" stroke-width="1" fill="none" fill-rule="evenodd">
        <g id="styleguide" transform="translate(-415.000000, -845.000000)" fill="#FFFFFF">
            <g id="Icon/Big/ThreeDrops" transform="translate(415.000000, 845.000000)">
                <path d="M52.1792762,0.254079021 C53.3648762,1.30785426 81.2190476,26.2361657 81.2190476,41.6218517 C81.2190476,57.2695627 67.889219,70 51.5047619,70 C50.5925333,70 49.6664381,69.9593247 48.7542095,69.8798658 C48.2094476,69.831623 47.8083048,69.371897 47.858819,68.8516309 C47.9083429,68.3313649 48.3877333,67.9482599 48.9354667,67.9955568 C49.7872762,68.0702859 50.6519619,68.1081234 51.5047619,68.1081234 C66.7967238,68.1081234 79.2380952,56.2261928 79.2380952,41.6218517 C79.2380952,28.3285811 55.8123429,6.20686859 51.5037714,2.25190066 C50.358781,3.30000027 47.8617905,5.62984624 44.8388571,8.71265909 C44.4634667,9.09292627 43.8364952,9.11279098 43.4383238,8.75617225 C43.0391619,8.39955352 43.0183619,7.80077459 43.3927619,7.41956146 C47.5943619,3.13540701 50.7985524,0.282457169 50.8302476,0.254079021 C51.2105905,-0.0845668819 51.7989333,-0.0845668819 52.1792762,0.254079021 Z M74.9602286,0.254079021 C76.1458286,1.30785426 104,26.2361657 104,41.6218517 C104,57.2695627 90.6701714,70 74.2857143,70 C73.3734857,70 72.4473905,69.9593247 71.5351619,69.8798658 C70.9904,69.831623 70.5892571,69.371897 70.6397714,68.8516309 C70.6892952,68.3313649 71.1657143,67.9482599 71.716419,67.9955568 C72.5682286,68.0702859 73.4329143,68.1081234 74.2857143,68.1081234 C89.5776762,68.1081234 102.019048,56.2261928 102.019048,41.6218517 C102.019048,28.3285811 78.5932952,6.20686859 74.2847238,2.25190066 C73.1397333,3.30000027 70.6427429,5.62984624 67.6198095,8.71265909 C67.2434286,9.09292627 66.6184381,9.11279098 66.2192762,8.75617225 C65.8201143,8.39955352 65.7993143,7.80077459 66.1737143,7.41956146 C70.3753143,3.13540701 73.5795048,0.282457169 73.6112,0.254079021 C73.9915429,-0.0845668819 74.5798857,-0.0845668819 74.9602286,0.254079021 Z M30.3888,0.253984427 C31.5744,1.30775967 59.4285714,26.2360711 59.4285714,41.6217571 C59.4285714,57.2694681 46.0987429,69.9999054 29.7142857,69.9999054 C13.3298286,69.9999054 -3.19744231e-14,57.2694681 -3.19744231e-14,41.6217571 C-3.19744231e-14,26.2360711 27.8541714,1.30775967 29.0397714,0.253984427 C29.4201143,-0.0846614757 30.0084571,-0.0846614757 30.3888,0.253984427 Z M29.7142857,2.25180607 C25.4037333,6.20961181 1.98095238,28.3294325 1.98095238,41.6217571 C1.98095238,56.2270441 14.4223238,68.1080289 29.7142857,68.1080289 C45.0062476,68.1080289 57.447619,56.2270441 57.447619,41.6217571 C57.447619,28.3294325 34.0248381,6.20961181 29.7142857,2.25180607 Z" id="Combined-Shape"></path>
            </g>
        </g>
    </g>
</svg>

<svg width="104" height="70" xmlns="http://www.w3.org/2000/svg"><path d="M52.18.254c1.185 1.054 29.039 25.982 29.039 41.368C81.219 57.27 67.889 70 51.505 70c-.912 0-1.839-.04-2.75-.12-.546-.048-.947-.508-.896-1.028.05-.52.529-.904 1.076-.856.852.074 1.717.112 2.57.112 15.292 0 27.733-11.882 27.733-26.486 0-13.293-23.426-35.415-27.734-39.37a177.378 177.378 0 00-6.665 6.46c-.376.38-1.003.4-1.4.044a.915.915 0 01-.046-1.336C47.594 3.135 50.799.282 50.83.254c.38-.339.969-.339 1.35 0zm22.78 0C76.146 1.308 104 26.236 104 41.622 104 57.27 90.67 70 74.286 70c-.913 0-1.839-.04-2.75-.12-.546-.048-.947-.508-.896-1.028.05-.52.526-.904 1.076-.856.852.074 1.717.112 2.57.112 15.292 0 27.733-11.882 27.733-26.486 0-13.293-23.426-35.415-27.734-39.37a177.378 177.378 0 00-6.665 6.46c-.377.38-1.002.4-1.4.044a.915.915 0 01-.046-1.336C70.375 3.135 73.58.282 73.61.254c.38-.339.969-.339 1.35 0zm-44.571 0c1.185 1.054 29.04 25.982 29.04 41.368C59.429 57.269 46.099 70 29.714 70 13.33 70 0 57.27 0 41.622 0 26.236 27.854 1.308 29.04.254c.38-.339.968-.339 1.349 0zm-.675 1.998C25.404 6.21 1.981 28.329 1.981 41.622c0 14.605 12.441 26.486 27.733 26.486s27.734-11.881 27.734-26.486c0-13.293-23.423-35.412-27.734-39.37z" fill="#FFF" fill-rule="evenodd"/></svg>
